icons/svg/shopping/hunting.svg

<?xml version="1.0" encoding="UTF-8" standalone="no"?>
<!-- Created with Inkscape (http://www.inkscape.org/) -->

<svg
   xmlns:dc="http://purl.org/dc/elements/1.1/"
   xmlns:cc="http://creativecommons.org/ns#"
   xmlns:rdf="http://www.w3.org/1999/02/22-rdf-syntax-ns#"
   xmlns:svg="http://www.w3.org/2000/svg"
   xmlns="http://www.w3.org/2000/svg"
   xmlns:sodipodi="http://sodipodi.sourceforge.net/DTD/sodipodi-0.dtd"
   xmlns:inkscape="http://www.inkscape.org/namespaces/inkscape"
   version="1.0"
   width="580"
   height="580"
   id="svg2"
   sodipodi:version="0.32"
   inkscape:version="0.91 r"
   sodipodi:docname="hunting.svg"
   inkscape:output_extension="org.inkscape.output.svg.inkscape">
  <metadata
     id="metadata10">
    <rdf:RDF>
      <cc:Work
         rdf:about="">
        <dc:format>image/svg+xml</dc:format>
        <dc:type
           rdf:resource="http://purl.org/dc/dcmitype/StillImage" />
        <cc:license
           rdf:resource="http://web.resource.org/cc/PublicDomain" />
        <dc:language>en</dc:language>
        <dc:title></dc:title>
      </cc:Work>
    </rdf:RDF>
  </metadata>
  <sodipodi:namedview
     inkscape:window-height="1004"
     inkscape:window-width="1920"
     inkscape:pageshadow="2"
     inkscape:pageopacity="0.0"
     guidetolerance="10.0"
     gridtolerance="10.0"
     objecttolerance="10.0"
     borderopacity="1.0"
     bordercolor="#666666"
     pagecolor="#ffffff"
     id="base"
     showgrid="false"
     inkscape:zoom="0.50000001"
     inkscape:cx="569.12085"
     inkscape:cy="527.47985"
     inkscape:window-x="1680"
     inkscape:window-y="0"
     inkscape:current-layer="svg2"
     inkscape:window-maximized="1" />
  <defs
     id="defs4">
    <clipPath
       id="clipoutline2"
       clipPathUnits="userSpaceOnUse">
      <path
         d="M 55.8,12 L 56.56,12.16 C 65.4,9.22 85.24,20.8 80.82,31.12 C 79.7,32.74 79.89,35.62 81.24,37.43 L 56.43,62.25 C 55.04,60.86 51.95,60.89 50.53,62.25 L 9.5,101.63 C 5.76,105.22 8.7,108.27 10.28,109.88 L 17.64,117.24 C 19.25,118.84 23.5,121 26.52,117.8 L 65.24,76.99 C 66.59,75.57 66.6,72.52 65.24,71.12 C 65.24,71.12 65.25,71.1 65.24,71.1 L 90.15,46.2 C 92.78,48.57 95.263827,48.774854 97.62,48.13 C 102.17057,46.884568 104.70725,51.336643 107.43,54.59 L 106.2,55.8 C 104.38,57.64 104.55,60.74 106.59,62.78 C 108.63,64.82 111.74,64.99 113.56,63.17 L 121.7,55.04 C 123.52,53.2 123.35,50.1 121.3,48.07 C 119.46,46.22 116.79,45.98 114.93,47.3 C 109.35,41.04 112.28,40.1 104.92,31.95 L 91.13,17.86 C 81.2,8.12 68.3,8.13 55.8,12 z"
         id="outline2" />
    </clipPath>
    <clipPath
       id="clipoutline1"
       clipPathUnits="userSpaceOnUse">
      <path
         d="M 22.42,17.2 L 35.38,30.15 L 32.88,38.93 L 24.1,41.43 L 11.14,28.47 L 5.28,34.33 L 20.17,55.79 L 37.73,52.45 L 99.36,118.07 C 108.8,127.58 121.53,113.32 112.7,105.2 L 46.85,42.92 L 50.86,25.16 L 28.72,10.89 L 22.42,17.2 z M 103.48,109.17 C 105.16,107.49 107.88,107.49 109.56,109.17 C 111.24,110.85 111.24,113.57 109.56,115.25 C 107.88,116.92 105.16,116.92 103.48,115.25 C 101.8,113.57 101.8,110.85 103.48,109.17 z"
         id="outline1" />
    </clipPath>
    <inkscape:perspective
       sodipodi:type="inkscape:persp3d"
       inkscape:vp_x="0 : 290 : 1"
       inkscape:vp_y="0 : 1000 : 0"
       inkscape:vp_z="580 : 290 : 1"
       inkscape:persp3d-origin="290 : 193.33333 : 1"
       id="perspective12" />
    <style
       type="text/css"
       id="style6">
   
    .fil0 {fill:#EF7900}
   
  </style>
    <inkscape:perspective
       id="perspective6807"
       inkscape:persp3d-origin="29.116032 : 19.410688 : 1"
       inkscape:vp_z="58.232063 : 29.116032 : 1"
       inkscape:vp_y="0 : 1000 : 0"
       inkscape:vp_x="0 : 29.116032 : 1"
       sodipodi:type="inkscape:persp3d" />
    <inkscape:perspective
       id="perspective6954"
       inkscape:persp3d-origin="290 : 193.33333 : 1"
       inkscape:vp_z="580 : 290 : 1"
       inkscape:vp_y="0 : 1000 : 0"
       inkscape:vp_x="0 : 290 : 1"
       sodipodi:type="inkscape:persp3d" />
    <marker
       viewBox="0 0 10 10"
       refY="5"
       refX="10"
       orient="auto"
       markerWidth="4"
       markerUnits="strokeWidth"
       markerHeight="3"
       id="ArrowStart">
      <path
         id="path2295"
         d="M 10 0 L 0 5 L 10 10 z" />
    </marker>
    <marker
       viewBox="0 0 10 10"
       refY="5"
       refX="0"
       orient="auto"
       markerWidth="4"
       markerUnits="strokeWidth"
       markerHeight="3"
       id="ArrowEnd">
      <path
         id="path2292"
         d="M 0 0 L 10 5 L 0 10 z" />
    </marker>
    <inkscape:perspective
       id="perspective7597"
       inkscape:persp3d-origin="178.5405 : 158.483 : 1"
       inkscape:vp_z="357.08099 : 237.7245 : 1"
       inkscape:vp_y="0 : 1000 : 0"
       inkscape:vp_x="0 : 237.7245 : 1"
       sodipodi:type="inkscape:persp3d" />
  </defs>
  <g
     id="g1327"
     transform="translate(0.5,-0.5)">
    <path
       d="M 66.275,1.768 C 24.94,1.768 1.704,23.139 1.704,66.804 l 0,450.123 c 0,40.844 20.894,62.229 62.192,62.229 l 452.024,0 c 41.307,0 62.229,-20.316 62.229,-62.229 l 0,-450.123 c 0,-42.601 -20.922,-65.036 -63.522,-65.036 -0.003,0 -448.494,-0.143 -448.352,0 z"
       style="fill:#111111;stroke:#eeeeee;stroke-width:3.40799999"
       id="path1329"
       inkscape:connector-curvature="0" />
  </g>
  <g
     id="g2319"
     transform="translate(879.29128,36.805122)">
    <path
       id="path2323"
       style="fill:#ffffff;stroke:none"
       d=""
       inkscape:connector-curvature="0" />
  </g>
  <g
     id="g2325"
     transform="translate(879.29128,36.805122)">
    <path
       id="path2329"
       style="fill:#ffffff;stroke:none"
       d=""
       inkscape:connector-curvature="0" />
  </g>
  <g
     id="g3"
     transform="matrix(25.021987,0,0,25.021987,-10.264443,-10.264201)"
     style="fill:#ffffff;fill-opacity:1">
    <path
       inkscape:connector-curvature="0"
       style="fill:#ffffff;fill-opacity:1"
       d="m 12,4.0603866 c 4.340322,0 7.939613,3.5992914 7.939613,7.9396134 0,4.340322 -3.599291,7.939613 -7.939613,7.939613 C 7.659678,19.939613 4.0603866,16.340322 4.0603866,12 4.0603866,7.659678 7.659678,4.0603866 12,4.0603866 M 12,3 c -5,0 -9,4 -9,9 0,5 4,9 9,9 5,0 9,-4 9,-9 0,-5 -4,-9 -9,-9 z"
       id="path5"
       sodipodi:nodetypes="csssccssscc" />
  </g>
  <line
     style="fill:none;fill-opacity:1;stroke:#ffffff;stroke-width:31.25;stroke-linejoin:round;stroke-miterlimit:10;stroke-dasharray:none;stroke-opacity:1"
     x1="289.99991"
     y1="14.249204"
     x2="289.99991"
     y2="79.340683"
     id="line11" />
  <line
     style="fill:none;fill-opacity:1;stroke:#ffffff;stroke-width:31.25;stroke-linejoin:round;stroke-miterlimit:10;stroke-dasharray:none;stroke-opacity:1"
     x1="289.99991"
     y1="506.84985"
     x2="289.99991"
     y2="565.75079"
     id="line13" />
  <line
     style="fill:none;fill-opacity:1;stroke:#ffffff;stroke-width:31.24999809;stroke-linejoin:round;stroke-miterlimit:10;stroke-dasharray:none;stroke-opacity:1"
     x1="565.75073"
     y1="290"
     x2="500.65936"
     y2="290"
     id="line15" />
  <line
     style="fill:none;fill-opacity:1;stroke:#ffffff;stroke-width:31.25;stroke-linejoin:round;stroke-miterlimit:10;stroke-dasharray:none;stroke-opacity:1"
     x1="74.181961"
     y1="290"
     x2="14.24926"
     y2="290"
     id="line17" />
  <path
     inkscape:connector-curvature="0"
     d="m 244.58249,139.61359 c 0,20.5348 21.67563,6.84493 95.82908,57.04112 19.39398,14.83069 11.40823,-14.83069 11.40823,-14.83069 0,0 -5.70412,-12.54904 -29.66138,-30.80221 -20.53481,-14.83068 -45.6329,-22.81644 -61.60442,-22.81644 -5.70411,0 -15.97151,2.28165 -15.97151,11.40822 z"
     id="path3"
     style="fill:#ffffff;fill-opacity:1" />
  <path
     inkscape:connector-curvature="0"
     d="m 221.76605,165.8525 c 0,27.37974 51.33701,10.2674 108.37813,45.6329 12.54904,-9.12658 7.98575,-19.39398 7.98575,-19.39398 -19.39399,-11.40822 -70.73099,-41.06961 -94.68826,-41.06961 -12.54905,0 -21.67562,7.98576 -21.67562,14.83069 z"
     id="path5-3"
     style="fill:#ffffff;fill-opacity:1" />
  <path
     inkscape:connector-curvature="0"
     d="m 164.72492,335.83505 c 0,-161.99679 143.74363,-77.57593 149.44774,-120.92719 1.14082,-9.12657 60.46359,29.66139 63.88605,37.64715 19.39395,34.22467 -11.40822,43.35125 5.70411,91.26579 5.70414,17.11234 4.56327,38.78796 6.84489,42.21043 5.7042,7.98575 34.22475,-4.5633 34.22475,22.81644 0,5.70411 -17.11238,4.56329 -39.92881,4.56329 -11.40823,0 -44.49208,-55.90029 -53.61866,-68.44934 13.68987,-34.22466 -12.54905,-57.04112 -36.50631,-57.04112 -18.25316,0 -34.22468,19.39398 -34.22468,19.39398 47.91455,-36.50631 79.85757,18.25316 59.32277,43.35125 -17.11233,22.81645 -41.0696,25.09809 -55.9003,27.37974 85.56169,0 93.54744,19.39398 93.54744,27.37974 0,11.40822 -65.02687,2.28164 -96.96991,2.28164 -14.83068,0 -30.8022,3.42247 -44.49207,3.42247 -15.97151,2.28164 -28.52055,-1.14082 -28.52055,-9.12658 0,-12.54905 4.56328,-18.25316 -1.14083,-37.64714 -7.98576,-21.67563 -21.67563,-20.5348 -21.67563,-28.52055 z"
     id="path7"
     style="fill:#ffffff;fill-opacity:1" />
  <path
     inkscape:connector-curvature="0"
     d="m 342.69322,268.52652 c 26.23892,13.68987 85.56172,9.12659 93.54742,-10.2674 9.12656,-21.67563 -17.11227,-65.02688 -43.35121,-77.57592 -26.23894,-13.68987 -62.74525,-5.70411 -75.2943,20.5348 -12.54906,25.09809 -1.14082,53.61865 25.09809,67.30852 z m 38.78796,-49.05536 c 0,-6.84494 4.56329,-11.40822 11.40825,-11.40822 6.84495,0 11.40818,4.56328 11.40818,11.40822 0,6.84493 -4.56323,11.40822 -11.40818,11.40822 -6.84496,0 -11.40825,-4.56329 -11.40825,-11.40822 z"
     id="path9"
     style="fill:#ffffff;fill-opacity:1" />
  <path
     inkscape:connector-curvature="0"
     d="m 198.9496,356.36984 c 0,12.54905 -21.67562,22.81646 -34.22468,22.81646 -12.54904,0 -22.81644,-10.26741 -22.81644,-22.81646 0,-12.54904 10.2674,-22.81644 22.81644,-22.81644 12.54906,0 34.22468,10.2674 34.22468,22.81644 z"
     id="path11"
     style="fill:#ffffff;fill-opacity:1" />
</svg>

<svg width="580" height="580" viewBox="0 0 580 580" fill="none" xmlns="http://www.w3.org/2000/svg">
<g clip-path="url(#clip0)">
<path d="M66.7751 1.26863C25.4401 1.26863 2.2041 22.6396 2.2041 66.3046V516.428C2.2041 557.272 23.0981 578.657 64.3961 578.657H516.42C557.727 578.657 578.649 558.341 578.649 516.428V66.3046C578.649 23.7036 557.727 1.26863 515.127 1.26863C515.124 1.26863 66.6331 1.12563 66.7751 1.26863V1.26863Z" fill="#111111" stroke="#EEEEEE" stroke-width="3.408"/>
<path d="M290 91.3357C398.603 91.3357 488.665 181.397 488.665 290.001C488.665 398.604 398.603 488.666 290 488.666C181.396 488.666 91.3347 398.604 91.3347 290.001C91.3347 181.397 181.396 91.3357 290 91.3357ZM290 64.8027C164.89 64.8027 64.8018 164.891 64.8018 290.001C64.8018 415.111 164.89 515.198 290 515.198C415.11 515.198 515.198 415.111 515.198 290.001C515.198 164.891 415.11 64.8027 290 64.8027Z" fill="white"/>
<path d="M290 14.25V79.3415" stroke="white" stroke-width="31.25" stroke-miterlimit="10" stroke-linejoin="round"/>
<path d="M290 506.85V565.751" stroke="white" stroke-width="31.25" stroke-miterlimit="10" stroke-linejoin="round"/>
<path d="M565.751 290H500.659" stroke="white" stroke-width="31.25" stroke-miterlimit="10" stroke-linejoin="round"/>
<path d="M74.1817 290H14.249" stroke="white" stroke-width="31.25" stroke-miterlimit="10" stroke-linejoin="round"/>
<path d="M244.583 139.613C244.583 160.148 266.258 146.458 340.412 196.654C359.806 211.485 351.82 181.824 351.82 181.824C351.82 181.824 346.116 169.275 322.158 151.022C301.624 136.191 276.526 128.205 260.554 128.205C254.85 128.205 244.583 130.487 244.583 139.613V139.613Z" fill="white"/>
<path d="M221.766 165.852C221.766 193.232 273.103 176.12 330.144 211.485C342.693 202.358 338.13 192.091 338.13 192.091C318.736 180.683 267.399 151.021 243.442 151.021C230.893 151.021 221.766 159.007 221.766 165.852V165.852Z" fill="white"/>
<path d="M164.725 335.836C164.725 173.839 308.469 258.26 314.173 214.909C315.314 205.782 374.636 244.57 378.059 252.556C397.453 286.78 366.651 295.907 383.763 343.822C389.467 360.934 388.326 382.61 390.608 386.032C396.312 394.018 424.833 381.469 424.833 408.848C424.833 414.553 407.72 413.412 384.904 413.412C373.496 413.412 340.412 357.511 331.285 344.962C344.975 310.738 318.736 287.921 294.779 287.921C276.526 287.921 260.554 307.315 260.554 307.315C308.469 270.809 340.412 325.568 319.877 350.667C302.765 373.483 278.807 375.765 263.977 378.046C349.538 378.046 357.524 397.44 357.524 405.426C357.524 416.834 292.497 407.708 260.554 407.708C245.723 407.708 229.752 411.13 216.062 411.13C200.091 413.412 187.542 409.989 187.542 402.004C187.542 389.454 192.105 383.75 186.401 364.356C178.415 342.681 164.725 343.822 164.725 335.836V335.836Z" fill="white"/>
<path d="M342.693 268.526C368.932 282.216 428.255 277.653 436.24 258.259C445.367 236.583 419.128 193.232 392.889 180.683C366.65 166.993 330.144 174.979 317.595 201.217C305.046 226.316 316.454 254.836 342.693 268.526ZM381.481 219.471C381.481 212.626 386.044 208.062 392.889 208.062C399.734 208.062 404.297 212.626 404.297 219.471C404.297 226.316 399.734 230.879 392.889 230.879C386.044 230.879 381.481 226.316 381.481 219.471Z" fill="white"/>
<path d="M198.95 356.369C198.95 368.918 177.274 379.186 164.725 379.186C152.176 379.186 141.909 368.918 141.909 356.369C141.909 343.82 152.176 333.553 164.725 333.553C177.274 333.553 198.95 343.82 198.95 356.369Z" fill="white"/>
</g>
<defs>
<clipPath id="clip0">
<path d="M0 0H580V580H0V0Z" fill="white"/>
</clipPath>
</defs>
</svg>
